svgs/sharp-solid/diagram-next.svg

<svg xmlns="http://www.w3.org/2000/svg" viewBox="0 0 512 512"><!--! Font Awesome Pro 6.6.0 by @fontawesome - https://fontawesome.com License - https://fontawesome.com/license (Commercial License) Copyright 2024 Fonticons, Inc. --><path d="M512 32l0 192-232 0 0 64 40 0 32 0 0 32-32 32-64 64-64-64-32-32 0-32 32 0 40 0 0-64L0 224 0 32l512 0zM64 288l64 0 0 32 0 13.3 9.4 9.4 9.4 9.4L64 352l0 64 146.7 0 22.6 22.6L256 461.3l22.6-22.6L301.3 416 448 416l0-64-82.7 0 9.4-9.4 9.4-9.4 0-13.3 0-32 64 0 64 0 0 64 0 64 0 64-64 0L64 480 0 480l0-64 0-64 0-64 64 0z"/></svg>

<svg xmlns="http://www.w3.org/2000/svg" viewBox="0 0 512 512"><!--! Font Awesome Pro 6.4.0 by @fontawesome - https://fontawesome.com License - https://fontawesome.com/license (Commercial License) Copyright 2023 Fonticons, Inc. --><path d="M512 32V224H280v64l40 0 32 0v32l-32 32-64 64-64-64-32-32V288l32 0 40 0V224H0V32H512zM64 288l64 0v32 13.3l9.4 9.4 9.4 9.4H64v64H210.7l22.6 22.6L256 461.3l22.6-22.6L301.3 416H448V352H365.3l9.4-9.4 9.4-9.4V320 288h64 64v64 64 64H448L64 480H0V416 352 288H64z"/></svg>
